X: 4067
M: C|
L: 1/8
K: D
|:\
[1 E/E/E (ED) EFGA | (3(Bcd) (AF) FEEF :|\
[2 faef deBd | AFEF D2A2 ||
|:\
defg afdg | (3(faf) (df) a2 (gf) |\
[1 e^def gfgf | (3(efg) (fa) g2 (fe) :|\
[2 gbef deBd | AFEF D2d2 |]


